X: 11718
T: El Probe Marineru
R: polka
M: 2/4
K: Adorian
c2 e2|e2 dc|B2 A2|c2 e2|e2 dc|cd dG|
c2- ce|e2 dc|B2 AB|c2 e2|1 d2 B2|A2- AB:|2 d2 B2|A4||
[K:Amin]|:GG GF|E4|A2 GA|c2 B2|GA AE|GG GF|
E4|A2 GA|c2 d2|e2 dc|d2 B2|A4:|

